public/svg_assets/socials_icons/instagram.svg

<svg width="66" height="66" viewBox="0 0 66 66" fill="none" xmlns="http://www.w3.org/2000/svg">
<path d="M33 66C51.2254 66 66 51.2254 66 33C66 14.7746 51.2254 0 33 0C14.7746 0 0 14.7746 0 33C0 51.2254 14.7746 66 33 66Z" fill="#A1A1A1"/>
<path d="M33.0017 15C28.1131 15 27.4996 15.022 25.5796 15.1118C23.6633 15.202 22.3553 15.5138 21.2108 15.9713C20.0269 16.4438 19.0227 17.0759 18.0222 18.1045C17.0209 19.1328 16.4059 20.165 15.9446 21.3813C15.4984 22.558 15.1946 23.9027 15.1084 25.8714C15.0225 27.8448 15 28.4757 15 33.5C15 38.5243 15.0218 39.1529 15.1088 41.1262C15.1969 43.0957 15.5003 44.4401 15.945 45.6163C16.4051 46.8331 17.0201 47.8652 18.021 48.8935C19.0212 49.9226 20.0254 50.5562 21.2086 51.0288C22.3538 51.4862 23.6622 51.798 25.5781 51.8882C27.4981 51.978 28.1113 52 32.9994 52C37.8884 52 38.5 51.978 40.42 51.8882C42.3363 51.798 43.6458 51.4862 44.7911 51.0288C45.9746 50.5562 46.9773 49.9226 47.9775 48.8935C48.9787 47.8652 49.5937 46.8331 50.055 45.6167C50.4975 44.4401 50.8012 43.0953 50.8912 41.1266C50.9775 39.1533 51 38.5243 51 33.5C51 28.4757 50.9775 27.8452 50.8912 25.8718C50.8012 23.9024 50.4975 22.558 50.055 21.3817C49.5937 20.165 48.9787 19.1328 47.9775 18.1045C46.9762 17.0755 45.9749 16.4434 44.7899 15.9713C43.6424 15.5138 42.3337 15.202 40.4174 15.1118C38.4974 15.022 37.8861 15 32.9961 15H33.0017ZM31.3869 18.3339C31.8662 18.3331 32.4009 18.3339 33.0017 18.3339C37.8077 18.3339 38.3774 18.3516 40.2753 18.4402C42.0303 18.5227 42.9828 18.8241 43.6173 19.0773C44.4573 19.4126 45.0562 19.8135 45.6858 20.461C46.3158 21.1085 46.7058 21.7251 47.0328 22.5885C47.2792 23.2398 47.5728 24.2188 47.6527 26.0225C47.739 27.9727 47.7577 28.5586 47.7577 33.4958C47.7577 38.4329 47.739 39.0188 47.6527 40.969C47.5725 42.7727 47.2792 43.7517 47.0328 44.4031C46.7066 45.2664 46.3158 45.8811 45.6858 46.5282C45.0558 47.1757 44.4577 47.5766 43.6173 47.9119C42.9835 48.1663 42.0303 48.4669 40.2753 48.5494C38.3777 48.638 37.8077 48.6573 33.0017 48.6573C28.1953 48.6573 27.6256 48.638 25.7281 48.5494C23.9731 48.4661 23.0206 48.1647 22.3857 47.9115C21.5457 47.5762 20.9457 47.1754 20.3157 46.5279C19.6857 45.8804 19.2957 45.2652 18.9687 44.4015C18.7223 43.7502 18.4287 42.7712 18.3488 40.9674C18.2625 39.0172 18.2453 38.4314 18.2453 33.4911C18.2453 28.5509 18.2625 27.9681 18.3488 26.0179C18.429 24.2142 18.7223 23.2352 18.9687 22.5831C19.2949 21.7197 19.6857 21.1031 20.3157 20.4556C20.9457 19.8081 21.5457 19.4072 22.3857 19.0712C23.0202 18.8168 23.9731 18.5162 25.7281 18.4333C27.3886 18.3562 28.0321 18.3331 31.3869 18.3292V18.3339ZM42.61 21.4056C41.4175 21.4056 40.45 22.3988 40.45 23.6249C40.45 24.8505 41.4175 25.8449 42.61 25.8449C43.8025 25.8449 44.7701 24.8505 44.7701 23.6249C44.7701 22.3992 43.8025 21.4049 42.61 21.4049V21.4056ZM33.0017 23.9995C27.8968 23.9995 23.7578 28.2533 23.7578 33.5C23.7578 38.7467 27.8968 42.9986 33.0017 42.9986C38.1066 42.9986 42.244 38.7467 42.244 33.5C42.244 28.2533 38.1066 23.9995 33.0017 23.9995ZM33.0017 27.3333C36.3152 27.3333 39.0017 30.0941 39.0017 33.5C39.0017 36.9055 36.3152 39.6667 33.0017 39.6667C29.6878 39.6667 27.0016 36.9055 27.0016 33.5C27.0016 30.0941 29.6878 27.3333 33.0017 27.3333Z" fill="white"/>
</svg>

<svg width="66" height="66" fill="none" xmlns="http://www.w3.org/2000/svg">
    <path d="M33 66c18.225 0 33-14.775 33-33S51.225 0 33 0 0 14.775 0 33s14.775 33 33 33Z" fill="#A1A1A1"/>
    <path d="M33.002 15c-4.889 0-5.502.022-7.422.112-1.917.09-3.225.402-4.37.86a8.793 8.793 0 0 0-3.188 2.133c-1.001 1.028-1.616 2.06-2.077 3.276-.447 1.177-.75 2.522-.837 4.49C15.023 27.845 15 28.476 15 33.5c0 5.024.022 5.653.109 7.626.088 1.97.391 3.314.836 4.49.46 1.217 1.075 2.25 2.076 3.278a8.795 8.795 0 0 0 3.188 2.135c1.145.457 2.453.769 4.37.86 1.92.089 2.532.111 7.42.111 4.89 0 5.501-.022 7.421-.112 1.916-.09 3.226-.402 4.371-.86a8.788 8.788 0 0 0 3.187-2.134c1-1.029 1.616-2.06 2.077-3.277.443-1.177.746-2.522.836-4.49.087-1.974.109-2.603.109-7.627 0-5.024-.023-5.655-.109-7.628-.09-1.97-.393-3.314-.836-4.49-.461-1.217-1.076-2.25-2.078-3.277a8.777 8.777 0 0 0-3.187-2.134c-1.148-.457-2.456-.769-4.373-.86-1.92-.089-2.53-.111-7.42-.111h.005Zm-1.615 3.334h1.615c4.806 0 5.375.018 7.273.106 1.755.083 2.708.384 3.342.637.84.336 1.44.736 2.069 1.384.63.648 1.02 1.264 1.347 2.128.246.65.54 1.63.62 3.434.086 1.95.105 2.536.105 7.473 0 4.937-.019 5.523-.105 7.473-.08 1.804-.374 2.783-.62 3.434a5.737 5.737 0 0 1-1.347 2.125 5.554 5.554 0 0 1-2.069 1.384c-.633.254-1.587.555-3.342.637-1.897.089-2.467.108-7.273.108-4.807 0-5.376-.019-7.274-.108-1.755-.083-2.707-.384-3.342-.638a5.563 5.563 0 0 1-2.07-1.383c-.63-.648-1.02-1.263-1.347-2.127-.247-.65-.54-1.63-.62-3.434-.087-1.95-.104-2.536-.104-7.476 0-4.94.017-5.523.104-7.473.08-1.804.373-2.783.62-3.435.326-.863.717-1.48 1.347-2.127a5.573 5.573 0 0 1 2.07-1.385c.634-.254 1.587-.555 3.342-.638 1.66-.077 2.304-.1 5.659-.104v.005Zm11.223 3.072c-1.193 0-2.16.993-2.16 2.219s.967 2.22 2.16 2.22 2.16-.994 2.16-2.22c0-1.226-.968-2.22-2.16-2.22ZM33.002 24c-5.105 0-9.244 4.253-9.244 9.5s4.139 9.499 9.244 9.499c5.105 0 9.242-4.252 9.242-9.499 0-5.247-4.137-9.5-9.242-9.5Zm0 3.333c3.313 0 6 2.761 6 6.167 0 3.406-2.687 6.167-6 6.167-3.314 0-6-2.761-6-6.167 0-3.406 2.686-6.167 6-6.167Z" fill="#fff"/>
</svg>
